X:0844
T:Honble. Ramsey Maule's March.
M:C
L:1/8
Q:1/2=76
I: :: :|
Z:Jack Campin * www.campin.me.uk * 2009
K:D
d2    d>d a3     f    |efgf   dcBA|d2d>d {de}f3 e/d/|cdef      e2 z/A/B/c/|
d2    d>d afaf        |bge>d  dcBA|d2d>d     e>fg>f |c>de>c    d4        :|
a2    a<a d'3    c'/a/|a>fb>g gfed|a2a>a     b>ga>d'|c'>d'b>c' a4         |
ab/a/ f2  ga/g/ e2    |fdBe   dcBA|d2d>d {ef}g3   f |e>de>c    d4        :|
<end>
<start>
